X:1
T:Фузияма
T:ФУЗИЯМА
T:(ОЧЕНь ТОНКО, ОЧЕНь ТОНКО)
T:Слова К. Подревкого
T:Музыка Матвей Блантера
T:Зак.№439
T:Зак.№439
T:Зак.№439
C:Матвей Блантера
Z:К. Подреского
Z:Зак.№439
%%score 1 { ( 2 3 ) | ( 4 5 ) }
L:1/8
Q:1/4=114
M:4/4
K:C
V:1 treble nm="Voice"
V:2 treble nm="Piano"
V:3 treble 
V:4 bass 
V:5 bass 
V:1
"^Moderato assai""_Moderato assai" z8 | z8 | z8 | z8 |: z2 A, B, C E G ^F | ^F4 =F4 | %6
w: ||||Воз- ле са- мой Фу- зн-|я- мы|
 z2 A, B, C E G ^F | ^F4 =F4 | z2 E ^F ^G A B c | c4 B4 | z2 A B c A G ^F | A4 G4 | %12
w: жил я- по- нец и я-|пон- ка...|ивк- вар- ти- ре из бу-|ма- ги|жи- ли гор без- ссор и|дра- ки|
 z2 E G _B A ^G A | G4 F4 | e2 d2 F2 E2 | e2 d2 F2 E2 | z2 A, B, C E G ^F | ^F4 =F4 | %18
w: и вод- ще без- вез- кой|дра- мы|О- чень тон- ко|о- чень тон- ко|Воз- ле са- мой Фу- зн-|я- мы|
 z2 A, B, C E G ^F | ^F4 =F4 | z2 E ^F ^G A B c | c4 B4 | z2 A B c A G ^F | A4 G4 | %24
w: по- ка- за- лась- мо- ре|джон- ка,|э- той джон- ке- пла- вая|ян- ки,|Он, пра- ча- лив- ши по-|лян- ке|
 z2 E G _B A ^G A | G4 F4 | e2 d2 F2 E2 | e2 d2 F2 E2 || %28
w: поз- до- ро- вал- ся- ся-|пон- кой|О- чень тон- ко|О- чень тон- ко.|
[K:A][Q:1/4=92]"_Meno mosso." z2 A B G A F A | G4 ^B4 | z2 A B G A F A | G4 ^B4 | z2 A B c B A e | %33
w: Воз- ле са- мой Фу- зн-|я- мы|муж, взгл- янув- ши им до-|гон- ку,|на- пол- сел- всво- ей квар-|
 e4 d4 | z2 A B =c B A d | d4 =c4 | z2 B =c d B A G | =F4 E4 |1 ^F2 =c2 B2 A2 | =F2 c2 B2 E2 :|2 %40
w: ти- ре,|что- бы сде- лать ха- ра-|ки- ри|от- люб- ви и для- рек-|ла- мы.|О- чень тон- ко|о- чень тон- ко.|
 F2 z2 G2 z2 | A4 z4 |] %42
w: Вот и|все.|
V:2
 z2 e>f e>d c2 | z2 [ABd]2 z2 [^Ge]2 | z2 [CE]2 z2 [CE]2 | z2 [CE]2 z2 [CE]2 |: z2 (A,B, CEG^F | %5
w: |||||
 ^F4 =F4) | z2 (A,B, CEG^F | ^F4 =F4) | z2 (E^F ^GABc | c4 B4) | z2 ([FA][GB] [Ac][FA][EG][^D^F] | %11
w: ||||||
 A4 G4) | z2 (EG _BA^GA | G4 F4) | (.e2 .d2 .F2 .E2) | (.e2 .d2 .F2 .E2) | z2 (A,B, CEG^F | %17
w: ||||||
 ^F4 =F4) | z2 (A,B, CEG^F | ^F4 =F4) | z2 (E^F ^GABc | c4 B4) | %22
w: |||в * * * * *||
 z2 ([FA]"_rit."[GB] [Ac][FA][EG][^D^F] | A4 G4) | z2 (EG _BA^GA | G4 F4) | (.e2 .d2 .F2 .E2) | %27
w: * * * * * к|||||
 (.e2 .d2 .F2 .E2) ||[K:A] z2 (AB GA FA | G4 ^B4) | z2 (AB GAFA | G4 ^B4) | z2 (AB cB Ae | e4 d4) | %34
w: |||||||
 z2 (AB =cB Ad | d4 =c4) |!>(! z2 B=c dBAG | =F4 E4!>)! |1!p! F2 =c2 B2 A2 | =F2 c2 B2 E2 :|2 %40
w: ||||||
 [^DF]4 [=DEG]4 | [=CEA]4 [=cea]2 z2 |] %42
w: ||
V:3
 z2 [EA]4 x2 | !>!F4 !>!E4 | x8 | x8 |: x8 | z2 [A,D][A,D] z2 [^G,D][G,D] | x8 | %7
 z2 [A,D][A,D] z2 [^G,D][G,D] | z2 C6 | z2 [DF][DF] z2 [DF][DF] | x8 | z2 [CE][CE] z2 [CE][CE] | %12
 z2 ^C6 | z2 [A,D][A,D] z2 [A,D][A,D] | ^G8 | ^G8 | x8 | z2 [A,D][A,D] z2 [^G,D][G,D] | x8 | %19
 z2 [A,D][A,D] z2 [^G,D][G,D] | z2 C6 | z2 [DF][DF] z2 [DF][DF] | x8 | z2 [CE][CE] z2 [CE][CE] | %24
 z2 ^C6 | z2 [A,D][A,D] z2 [A,D][A,D] | ^G8 | ^G8 ||[K:A] z2 C6 | z2 [D=F][DF] z2 [DF][DF] | %30
 z2 C6 | z2 [D=F][DF] z2 [DF][DF] | x8 | z2 [FA][FA] z2 [FA][FA] | x8 | z2 [EA][EA] z2 [EA][EA] | %36
 =F8 | x8 |1 ^D8 | D8 :|2 x8 | x8 |] %42
V:4
!p! [A,,,A,,]2 [E,A,C]2 [C,,C,]2 [E,A,C]2 | [D,,D,]4 [E,,E,]4 | A,,2{/^D,} E,2 E,,2 E,2 | %3
 A,,2{/^D,} E,2 E,,2 E,2 |:"^rubato" A,,2!p! E,2 E,,2 E,2 | B,,2 E,2 E,,2 E,2 | A,,2 E,2 E,,2 E,2 | %7
 B,,2 E,2 E,,2 E,2 | A,,2 E,2 E,,2 E,2 | D,2 F,2 G,,2 G,2 | F,2 G,2 G,,2 G,2 | E,2 G,2 G,,2 G,2 | %12
 ^C,2 G,2 A,,2 G,2 | D,2 F,2 C,2 F,2 | B,,2 [E,^G,D]2 E,,2 [E,G,D]2 | %15
 B,,2 [E,^G,D]2 E,,2 [E,G,D]2 | A,,2 E,2 E,,2 E,2 | B,,2 E,2 E,,2 E,2 | A,,2 E,2 E,,2 E,2 | %19
 B,,2 E,2 E,,2 E,2 | A,,2 E,2 E,,2 E,2 | D,2 F,2 G,,2 G,2 | F,2 G,2 G,,2 G,2 | E,2 G,2 G,,2 G,2 | %24
 ^C,2 G,2 A,,2 G,2 | D,2 F,2 C,2 F,2 | B,,2 [E,^G,D]2 E,,2 [E,G,D]2 | %27
 B,,2 [E,G,D]2 E,,2 [E,G,D]2 ||[K:A]!f! A,,2 E,2 E,,2 E,2 | B,,2 E,2 E,,2 E,2 | A,,2 E,2 E,,2 E,2 | %31
 B,,2 E,2 E,,2 E,2 |"^rit." =G,2 A,2 A,,2 A,2 | ^F,2 A,2 A,,2 A,2 | =F,2 A,2 A,,2 A,2 | %35
 E,2 G,2 A,,2 A,2 | %36
"_Возле самой фузиямы\nВдруг раздалця грохот гонга\nЭто без предупрежденья,\nБез сестемы и прогрммы\nНачалось землетряценье\nОчень грубо и не тонко.." D,2 A,2 =F,2 B,2 | %37
 E,2 =C2 A,2 E,2 |1 %38
"_Бозле самой фузиямы\nНет ни янки, ни япони,\nИ по тамошней привычке\nНа крустах одни лишь птички\nРаспевают хором гаммы\nВот и все." (([F,A,]4 =F,4 | %39
 [E,A,]4))"_Так прошла без продолженья\nВстреча янки и японки...\nСмысла кто не понимает,\nПысть мозги сбои ломает:\nСмысл пассказа, к сожаленью\nОчень тонкий, очень тонкий..." E,,4 :|2 %40
 [B,,A,]4 E,4 | A,2 E,2 A,,2 z2 |] %42
V:5
 x8 | x8 | x8 | x8 |: x8 | x8 | x8 | x8 | x8 | x8 | x8 | x8 | x8 | x8 | x8 | x8 | x8 | x8 | x8 | %19
 x8 | x8 | x8 | x8 | x8 | x8 | x8 | x8 | x8 ||[K:A] A,,8 | x8 | A,,8 | x8 | =G,8 | F,8 | =F,8 | %35
 E,8 | D,8 | x8 |1 B,,8 | x8 :|2 x8 | x8 |] %42

